packages/core/assets/Icons/arrow_up_right.svg

<svg viewBox="0 0 20 20" fill="none" xmlns="http://www.w3.org/2000/svg">
<path d="M13.3334 7.00002L5.91671 14.4167C5.76393 14.5695 5.56949 14.6459 5.33337 14.6459C5.09726 14.6459 4.90282 14.5695 4.75004 14.4167C4.59726 14.2639 4.52087 14.0695 4.52087 13.8334C4.52087 13.5972 4.59726 13.4028 4.75004 13.25L12.1667 5.83335H5.83337C5.59726 5.83335 5.39935 5.75349 5.23962 5.59377C5.0799 5.43405 5.00004 5.23613 5.00004 5.00002C5.00004 4.76391 5.0799 4.56599 5.23962 4.40627C5.39935 4.24655 5.59726 4.16669 5.83337 4.16669H14.1667C14.4028 4.16669 14.6007 4.24655 14.7605 4.40627C14.9202 4.56599 15 4.76391 15 5.00002V13.3334C15 13.5695 14.9202 13.7674 14.7605 13.9271C14.6007 14.0868 14.4028 14.1667 14.1667 14.1667C13.9306 14.1667 13.7327 14.0868 13.573 13.9271C13.4132 13.7674 13.3334 13.5695 13.3334 13.3334V7.00002Z" fill="currentColor"/>
</svg>

<svg xmlns="http://www.w3.org/2000/svg" width="20" height="20" fill="none" viewBox="0 0 20 20">
  <path fill="#201F1F" d="m13.333 7-7.416 7.417a.79.79 0 0 1-.584.229.79.79 0 0 1-.583-.23.79.79 0 0 1-.23-.583.79.79 0 0 1 .23-.583l7.417-7.417H5.833a.806.806 0 0 1-.593-.24A.806.806 0 0 1 5 5c0-.236.08-.434.24-.594.16-.16.357-.24.593-.24h8.334c.236 0 .434.08.594.24.16.16.239.358.239.594v8.333c0 .236-.08.434-.24.594a.807.807 0 0 1-.593.24.806.806 0 0 1-.594-.24.806.806 0 0 1-.24-.594V7Z"/>
</svg>
